img/svg/bitcoin.svg

<svg width="24" height="24" viewBox="0 0 24 24" fill="none" xmlns="http://www.w3.org/2000/svg">
    <path
        d="M8.3999 8.01927H13.7846C14.3202 8.01927 14.8338 8.23201 15.2125 8.6107C15.5912 8.98938 15.8039 9.50299 15.8039 10.0385C15.8039 10.5741 15.5912 11.0877 15.2125 11.4664C14.8338 11.8451 14.3202 12.0578 13.7846 12.0578M13.7846 12.0578C14.3202 12.0578 14.8338 12.2706 15.2125 12.6492C15.5912 13.0279 15.8039 13.5415 15.8039 14.0771C15.8039 14.6126 15.5912 15.1262 15.2125 15.5049C14.8338 15.8836 14.3202 16.0964 13.7846 16.0964H8.3999M13.7846 12.0578H9.74608M9.74608 8.01927V16.0964M10.4192 5.99999V8.01927M13.1115 5.99999V8.01927M10.4192 16.0964V18.1156M13.1115 16.0964V18.1156M21.5999 12C21.5999 17.3019 17.3018 21.6 11.9999 21.6C6.69797 21.6 2.3999 17.3019 2.3999 12C2.3999 6.69806 6.69797 2.39999 11.9999 2.39999C17.3018 2.39999 21.5999 6.69806 21.5999 12Z"
        stroke="#0BBA74" stroke-width="2" stroke-linecap="round" stroke-linejoin="round" />
</svg>

<svg width="24" height="24" viewBox="0 0 24 24" fill="none" xmlns="http://www.w3.org/2000/svg"><path d="M8.4 8.02h5.385a2.02 2.02 0 110 4.038m0 0a2.02 2.02 0 010 4.038H8.4m5.385-4.038H9.746m0-4.039v8.077M10.42 6v2.02M13.111 6v2.02m-2.692 8.076v2.02m2.692-2.02v2.02M21.6 12a9.6 9.6 0 11-19.2 0 9.6 9.6 0 0119.2 0z" stroke="#0BBA74" stroke-width="2" stroke-linecap="round" stroke-linejoin="round"/></svg>
